F[BALLADE
CUT[Die dienende Schwester
    Es wohnt ein Markgraf wohl an dem Rhein,]
CNR[der hatt' drei schoene Toechterlein,]
REG[Mitteleuropa, Deutschland / UdSSR, Ostpreussen]
SRC[4, S. 112
    ????]
KEY[Q0075Z 16  F 4/4]
MEL[5__  3__3__3__2_.3  4__2__2__
    2_3_  4__4__4__3_.4  5__3__3__
    5__  +1__.5_6_5_5_3_  5__2__1__ //] >>
FCT[Ballade, Adelige als Dienstmagd, Tod; Kinder - Spiel, Tanz]
